X:87
T:Saraband,The. (p)1651.PLFD.087
M:6/4
L:1/4
Q:3/4=120
S:Playford, Dancing Master,1st Ed.,1651.
O:England
H:1651.
Z:Chris Partington.
K:D
afageg|fdfe2A|cdefga|gafg2f|
afageg|fdfe2A|cdefga|gafg2f|
|cccc>BA|agfe2A|cdefga|gafe2d|
cccc>BA|agfe2c|cdefga|gafe2d:|
